X:210
T: Downtown Jig (with piano acc.)
C: BB
R: jig
Q: 1/8=320
M: 6/8
L: 1/8
V: 1 program 1 110 %fiddle
V: 2 volume=70 clef=bass m=D program 1 00
K: D
[V:1] "D"dcB AFF|"Bm"dFF BFF|"D"dcB "F#m"AFE|"D"DEF "A"ABc|
[V:2] D,2[AFD]A,,2[AFD]|B,,2[BDF]F,,2[BDF]|D,2[AFD]F,2[ECA]|D,2[AFD]A,,2[AEC]|
%
[V:1] "D"dcB AFF|"Bm"dFF BFF|"D"ABd "F#m"efa|"G"gfg "A"ecA :|
[V:2] D,2[AFD]A,,2[AFD]|B,,2[BDF] F,,2[BDF]|D,2[AFD]F,2[ECA]|G,,2[GDB]A,,2[AEC]:|
%
[V:1] "D"ABd "Em"e2d|"A"eaf "Em"e2d|"G"Bdd "D"fdd|"Bm7"baf "Em"edB|
[V:2] D,2[AFD]E,2[EBG]|A,,2[AEC]E,2[EBG]|G,,2[GBD]D,2[AFD]|B,,2[DFA]E,2[EBG]|
%
[V:1] "D"ABd "Em"e2d|"A"eaf "Em"e2d|"Bm"dfb "F#m"afe|1 "D"fef "Bm7"dBA :|2\
"D" fef d3||
[V:2] D,2[AFD]E,2[EBG]|A,,2[AEC]E,2[EBG]|B,,2[BFd]F,,2[ECA]|1 D,2[AFD]B,,2[DFA]:|2\
D,2[AFD] [D,3F3A,3]||

%%%%%%%%%%%%%%%%%%%%%%%%%%%%%%%%%%%%%%%%%%%

